X:1408
T:Da Caald Nights O Winter
O:england
M:4/4
L:1/8
Q:1/4=220
C:Trad Shetland
R:reel
K:D
e|eaaf gefd|BBge d2 dd|eaaf gafd|efdf e2 e:|
A|AAcA eAcA|BBge d2 df|eAcA eAce|efdf e2 e:|


